X: 136
T: Leaving of Liverpool
M:4/4
R:song
L:1/8
Z:added by Alf warnock alf0@rogers.com - www.alfwarnock.info/alfs
K:G
P:Intro
G,2A,2|"G"B,6D2|C2B,2 A,2G,2|"C"G4 G2E2|"G"D4 G,2A,2|
B,2D2 D2B,2|"D7"A,6G,2|"G"G,8-|G,4|
P:Verses
|:G,2A,2|"G"B,6D2|C2B,2 A,2G,2|"C"G4 G2E2|"G"D4 G,2A,2|
B,6D2|E4 D2B,2|"D7"A,8-|A,4 G,2A,2|
"G"B,6D2|C2B,2 A,2G,2|"C"G4 G2E2|"G"D4 G,2A,2|
B,2D2 D2B,2|"D7"A,6G,2|"G"G,8-|G,4:|
P:Chorus
F2G2|"D7"A4 F2D2|D4 F2A2|"C"G6E2|"G"D4 G,2A,2|
B,2D2 D3D|D2D2 E2D2|"D7"A,8-|A,2D2 D2C2|
"G"B,4B,2B,2|C2B,2 A,2G,2|"C"G6E2|"G"D4 G,2A,2|
B,2D2 D2B,2|"D7"A,6G,2|"G"G,8-|G,4 |]


